X:1
T:Nothin'
T:Luckey Roberts Adam Swanson Original transcription by Ian Pallister
T:Nothin'
T:as played by Adam Swanson
C:Luckey Roberts
C:Adam Swanson
%%score { ( 1 4 5 ) | ( 2 3 ) }
L:1/8
Q:1/4=140
M:4/4
K:Db
V:1 treble nm="Piano" snm="Pno."
V:4 treble 
V:5 treble 
V:2 treble 
V:3 treble 
V:1
"^Presto"!8va(! (3((a'/b'/a'/ =g'/a'/) f''/_g'/e''/f'/ d''>e' c''/d'/b'/c'/ | %1
 a'/b/g'/a/ f'/g/_f'/g/ e') z !>![gc'e'a']!8va)! z | (3((a/b/a/ =g/a/) f'/_g/e'/f/ d'>e c'/d/b/c/ | %3
 a/B/g/A/ f/G/_f/G/ e) z !>![Gcea]2 || (3(a/b/a/ =g/a/) f'/_g/e'/f/ d'(f/4g/4f/4e/4) c'/d/b/_c/ | %5
 [ce]/a/g/=A/ B/[_cf]/=d/f/ e/G[gc'e'a']/- [gc'e'a'] z | %6
 (3(a/b/a/ =g/a/) f'/_g/e'/f/ d'(f/4g/4f/4e/4) c'/d/b/_c/ | %7
 c/a/g/=A/ B/[_cf]/=d/f/ e/G[gc'e'a']/- [gc'e'a'] z/ (a/ | %8
 c'/b/a/g'/-) g'[e=ac'f']- [eac'f']2 z (3z/ (_a/b/ | c'/b/=d/g'/-) g'[daf']- [daf']4 | %10
 z/ [d=gbe'] z/ [=Gdb] z/ [dgbe']/- [dgbe']/ z/ [Gdb] z/ [dgbe'] z/ | %11
 [=Gdb] z/ [Bdb]/- [Bdb]/ z/ [d=gbe'] z/ [d_g=ae'] z/ [cg_ae'] z | %12
 (3(a/b/a/ =g/a/) f'/_g/e'/f/ d'(f/4g/4f/4e/4) c'/d/b/_c/ | %13
 [ce]/a/g/=A/ B/[_cf]/=d/f/ [=ce]/G[gc'e'a']/- [gc'e'a'] z | %14
 (3(a/b/a/ =g/a/) f'/_g/e'/f/ d'(f/4g/4f/4e/4) c'/d/b/_c/ | %15
 c/a/g/=A/ B/[_cf]/=d/f/ [=ce]/G[gc'e'a']/- [gc'e'a'] (3z/ (a/b/ | %16
 c'/b/a/g'/-) g'[e=ac'f']- [eac'f']2 z (3z/ (_a/b/ | c'/b/=d/g'/-) g'[daf']- [daf']4 | %18
 z/ [d=gbe'] z/ [=Gdb] z/ [dgbe']/- [dgbe']/ z/ [Gdb] z/ [dgbe'] z/ | %19
 [Begb]>[_ceg_c']- [cegc']/[=cga=c']a/ [dfd'] z [Gcea]2 || %20
 [dfad'] z/ [Bdfb]/- [Bdfb]/ z/ [dfad'] z/{/=e'} [ff'] z/ [dfad']>[Bfb]- | %21
 [Bfb]/ z/ [dfad'] z/ [ebe'] z/ [fbf']([=gb]/[^fc']/ [gb]/[=fc']/[gb]) | %22
 [dgbd']>[Begb]- [Begb][dgbd']- [dgbd']/{/=e'}.[ff'] z/ [dgd']>[Beb]- | %23
 [Beb][dgd']- [dgd']/[ege'] z/ [faf']([fa]/[=eb]/ [fa]/[eb]/[fa]) | %24
 [dfad']>[Bdfb]- [Bdfb][dfad']- [dfad']/{/=e'}.[ff']3/2 [dfad']>[Bfb]- | %25
 [Bfb][dbd']- [dbd']<[ebe'] [fbf']([=gb]/[^fc']/ [gb]/[=fc']/[gb]) | %26
 z [Ee]/E/ B/[EBe]=d/ f/=G/B/[GBe]/- [GBe]/f/[GBe] | %27
 z [Aa]/A/ e/[Aa]e/ b/c/e/[cea]/- [cea]/b/[cea] | %28
 [dfad']>[Bdfb]- [Bdfb][dfad']- [dfad']/{/=e'}.[ff']3/2 [dfad']>[Bfb]- | %29
 [Bfb][dbd']- [dbd']<[ebe'] [fbf']([=gb]/[^fc']/ [gb]/[=fc']/[gb]) | %30
 [dgbd']>[Begb]- [Begb][dgbd']- [dgbd']/{/=e'}.[ff'] z/ [dgd']>[Beb]- | %31
 [Beb][dgd']- [dgd']/[ege'] z/ [faf']([fa]/[=eb]/ [fa]/[eb]/[fa]) | %32
 [a_c'a']>[eac'e']- [eac'e'][fd'f'] z/ [ac'a']3/2 [eac'e']>[fbd'f']- | %33
 [fbd'f'][ad'a']- [ad'a']<[fd'f'] [ee']([gb]/e'/ [gb]/e'/[ga]) | %34
 [dfad']>[Bdfb]- [Bdfb][dfad']- [dfad']/{/=e'}.[ff']3/2 [dfad']>[Bfb]- | %35
 [Bfb][dbd']- [dbd']<[cgac'] [dfd'] z [Gcea]2 || %36
!8va(! (3(a'/b'/a'/ =g'/a'/) f''/_g'/e''/f'/ d''(f'/4g'/4f'/4e'/4) c''/d'/b'/_c'/ | %37
 [c'e']/a'/g'/=a/ [bd']/[_c'f']/=d'/f'/ e'/g[g'c''e''a'']/- [g'c''e''a''] z | %38
 (3(a'/b'/a'/ =g'/a'/) f''/_g'/e''/f'/ d''(f'/4g'/4f'/4e'/4) c''/d'/b'/_c'/ | %39
 c'/a'/g'/=a/ [bd']/[_c'f']/=d'/f'/ e'/g[g'c''e''a'']/- [g'c''e''a'']!8va)! (3z/ (_a/b/ | %40
 c'/b/a/g'/-) g'[e=ac'f']- [eac'f']2 z (3z/ (_a/b/ | c'/b/=d/g'/-) g'[daf'] !//-!f2 [a=d'f']2 | %42
 z/ [d=gbe'] z/ [=Gdb] z/ [dgbe']/- [dgbe']/ z/ [Gdb] z/ [dgbe'] z/ | %43
 [=Gdb] z/ [Bdb]/- [Bdb]/ z/ [d=gbe'] z/ [d_g=ae'] z/ [cg_ae'] z | %44
 (3(a/b/a/ =g/a/) f'/_g/e'/f/ d'(f/4g/4f/4e/4) c'/d/b/_c/ | %45
 [ce]/a/g/=A/ B/[_cf]/=d/f/ [=ce]/G[gc'e'a']/- [gc'e'a'] z | %46
 (3(a/b/a/ =g/a/) f'/_g/e'/f/ d'(f/4g/4f/4e/4) c'/d/b/_c/ | %47
 c/a/g/=A/ B/[_cf]/=d/f/ [=ce]/G[gc'e'a']/- [gc'e'a'] (3z/ (a/b/ | %48
 c'/b/a/g'/-) g'[e=ac'f']- [eac'f']2 z (3z/ (_a/b/ | c'/b/=d/g'/-) g'[daf']- [daf']4 | %50
 z/ [d=gbe'] z/ [=Gdb] z/ [dgbe']/- [dgbe']/ z/ [Gdb] z/ [dgbe'] z/ | %51
 [Begb]>[_ceg_c']- [cegc']/[=cga=c']a/ [dfd'] z [Gcea]2 || %52
 z/ a/[Bb]/d/ f/[Aa]/f/f/ [Bb]/d/f/[Ada]/- [Ada]/[Bdfb] z/ | %53
 z [Bgb] z/ [Aea]g/ [Bb]>[Aea]- [Aea]/[Bgb][Bgb]/- | %54
 [Bgb][Bgb] z/ [Aea]g/ [Bb]>[Aea]- [Aea]/[Bgb] z/ | %55
 z [Bfb]/d/ f/[Aa]/d/f/ [Bb]/g/a/[ege']/- [ege']/[Aa] z/ | %56
 z/ a/[Bb]/d/ f/[Aa]/f/f/ [Bb]/d/f/[Ada]/- [Ada]/[Bdfb] z/ | %57
 z f/=B/ c/fe/ f/B/!>!c/[FAcf]/- [FAcf]/[FAcf]/[^F=Ac^f] | %58
 z f/d/ e/f/F/=G/ c/F/G/[Ec]/- [Ec]/[DB] z/ | z8 | %60
 z [Bb]/d/ f/[Aa]/f/f/ [Bb]/d/f/[Ada]/- [Ada]/[Bdfb] z/ | %61
 z [Bgb] z/ [Aea]g/ [Bb]>[Aea]- [Aea]/[Bgb][Bgb]/- | %62
 [Bgb][Bgb] z/ [Aea]g/ [Bb]>[Aea]- [Aea]/[Bgb] z/ | %63
 z/ f/[Bb]/d/ f/[Aa]f/ [Bb]/g/a/[ege']/- [ege'] (5:4:5(=g/4a/4=a/4b/4=b/4 | %64
 c')[dd']/a/ _c'/[dad']c'/ [ee']/a/c'/[dad']/- [dad'] (5:4:5(=g/4a/4=a/4b/4=b/4 | %65
 c')[dd']/g/ b/[dgd'][dd']/ g/__b[ege']/- [ege']2 | %66
 z/ [dfad'][=G=g]/- [Gg]/[Aa][Bdfb]/- [Bdfb]/[Gdg][Ada]/- [Ada]/[=Adf=a][Bb]/- | %67
 [Bb]/[=B=b][cgc']/- [cgc']/[Aga]a/ [dfd']2 [dfad'] (6:4:6(=g/4a/4=a/4_b/4=b/4c'/4 | %68
 d'>)d' d (6:4:6(=g/4a/4=a/4b/4=b/4c'/4 d'>)d' d (6:4:6(g/4_a/4=a/4_b/4=b/4c'/4 | %69
 d')(fg=g b__b a2) ||[K:Gb] [bd'] z [=a=c'] z [bd'] z [_c'e'] z | %71
 [bd'] z [=a=c'] z/ [_a_c'] z/ (6:4:6(=g/4a/4=a/4b/4c'/4=c'/4 d'3/2) (3(c'/4d'/4=d'/4 | %72
 e') z [c'=d'] z [c'e'] z [c'f'] z | %73
 [c'e'] z [c'=d'] z/ [b_d']/- [bd'] (6:4:6(=c'/4d'/4=d'/4e'/4=e'/4f'/4 g'2) | %74
 [dbd'] z [=c=a=c'] z [dgbd'] z [egbe'] z |{/[gg']} [f=af']2 [eae']>[=d=d']- [dd']7/2 [ee']/- | %76
 [ee']>[dd']- [dd']>[=c=c']- [cc']7/2 [dd']/- | %77
 [dd']>[__df__d']- [dfd']3/2{/b}[cfc']/- [cfc']3 (6:4:6(=g/4a/4=a/4b/4c'/4=c'/4 | %78
 d') z [=a=c'] z [bd'] z [_c'e'] z | %79
 [bd'] z [=a=c'] z/ [_a_c']/- [ac'] (6:4:6(=g/4a/4=a/4b/4c'/4=c'/4 d'3/2) (3(c'/4d'/4=d'/4 | %80
 e') z [c'=d'] z [c'e'] z [c'f'] z | %81
 [c'e'] z [c'=d'] z/ [b_d']/- [bd'] (6:4:6(=c'/4d'/4=d'/4e'/4=e'/4f'/4 g'2) | %82
 [gbd'g']2 [fbd'f']2 [gbd'g']2 [ad'_f'a']2 | [gc'e'g']2 [fc'e'f']2 [g=c'e'g']2 [ac'e'a']2 | %84
 [dgbd']2 [=cg=c']2 [dgbd']>[cgc']- [cgc']<[dgd'] | %85
 [eac'e']>[fac'f']- [fac'f']/[dfad']d'/ [gbg'] (6:4:6(=c'/4d'/4=d'/4e'/4=e'/4f'/4 g'2) || %86
 (5:4:5(G/b/g/d/B/) (5:4:5(F/a/f/=d/A/) (5:4:5(E/g/e/B/G/) (5:4:5(=D/f/d/A/F/) | %87
 (5:4:5(=C/e/B/G/E/) (5:4:5(=D/f/=d/A/F/) z/ [Geg][Afa]/- [Afa]<[Bb] | %88
 (5:4:5(F/a/f/d/A/) (5:4:5(E/g/e/=c/G/) (5:4:5(D/f/d/A/F/) (5:4:5(=C/e/c/G/E/) | %89
 (5:4:5(B,/d/B/F/D/) (5:4:5(=C/e/=c/G/E/) z/ [Ff][Gg]/- [Gg]/[Aa]/ (6:4:6(=g/4a/4=a/4b/4c'/4=c'/4 | %90
 d'>)d' d (6:4:6(=g/4a/4=a/4b/4c'/4=c'/4 d'>)d' d (6:4:6(g/4_a/4=a/4_b/4_c'/4=c'/4 | d'15/2) d'/ || %92
"^Swing sixteenths" (3b/d'/b/ a/=a/ b/[gbe']d'/ (3b/d'/b/ _a/=a/ b/[abe']d'/ | %93
 (3b/d'/b/ a/=a/ b/[gabe']e'/ (3c'/e'/c'/ _a/=a/4b/4 c'/[ad'f']e'/ | %94
 (3c'/e'/c'/ a/=a/4b/4 c'/f'e'/ (3c'/e'/c'/ _a/=a/4b/4 e'/d'e'/ | %95
 (3c'/e'/c'/ a/=a/4b/4 c'/[ad'f']d'/ (3b/e'/b/ _a/=a/ b/[d'b']d'/ | %96
 (3b/d'/b/ a/=a/ b/[gbe']d'/ (3b/d'/b/ _a/=a/ b/[gbe'][=gae']/- | %97
 e'/f'/e' =d'/=c'b/- b/b/4_a/4=c/^c/ =d/[Adfb]b/ | %98
 (3=g/b/g/ f/^f/ g/[dge']a/ (3_g/a/g/ e/=f/ a/[=cge']a/ | %99
 (3f/a/f/ e/=e/ f/[cfd']a/ (3f/a/f/ _e/=e/ f/[cfd']!8va(!d''/ | %100
 (3b'/d''/b'/ a'/=a'/ b'/[g'b'e'']d''/ (3b'/d''/b'/ _a'/=a'/ b'/[a'b'e'']d''/ | %101
 (3b'/d''/b'/ a'/=a'/ b'/[g'a'b'e'']e''/ (3c''/e''/c''/ _a'/=a'/4b'/4 c''/[d''f'']e''/ | %102
 (3c''/e''/c''/ a'/=a'/4b'/4 c''/f''e''/ (3c''/e''/c''/ _a'/=a'/4b'/4 e''/d''e''/ | %103
 (3c''/e''/c''/ a'/=a'/4b'/4 c''/[a'd''f'']d''/ (3b'/e''/b'/ _a'/=a'/ b'/[g'g'']!8va)! (3d'/4e'/4f'/4 | %104
 z/ g3/2- g<f- f<g- g<a- | a<g- g<f [g=c'g']2 [ac'a']2 | %106
 [dgbd']2 [=cg__b=c']>[dg_bd']- [dgbd']>[c-g-__bc'-] [cg=bc']<[dg_bd'] | %107
 [eac'e']>[fc'd'f']- [fc'd'f']/[dac'd']/ (6:4:6=c'/4d'/4=d'/4e'/4=e'/4f'/4 g'!8va(! (6:4:6=c''/4d''/4=d''/4e''/4=e''/4f''/4 !>!g''2!8va)! | %108
 z2 !fermata!z6 |] %109
V:2
 f2 g2 a=g_gf | edc_c =cA,!>![Ac] z | F2 G2 A=G_GF | EDC_C =C[K:bass] z !>![A,CE]2 || %4
 [F,,F,].[A,DF] [G,,G,].[A,CG] [A,,A,].[A,DF] [=G,,=G,].[B,D_F] | %5
 [G,,A,].[A,CG] [_F,,=G,].[B,D_F] [E,,A,].[A,CG] A,,,.[A,CG] | %6
 F,,.[F,A,D] G,,.[G,A,C] A,,.[A,DF] [=G,,=G,].[B,D_F] | %7
 [G,,G,].[A,CG] [_F,,=G,].[B,D_F] [E,,_G,].[A,CG] A,,,.[A,CG] | %8
 F,,.[CEF] C,,.[CEF] [F,,F,].[CF] [E,,E,].[CF] | %9
 =D,,.[A,=DF] B,,,.[A,DF] [=G,,=G,].[B,,B,][=A,,=A,].[_A,,_A,] | %10
 =G,,.[B,DE] B,,,.[B,DE] G,,.[B,DE] B,,,.[=G,B,E] | %11
 =G,,.[B,DE] [B,,,B,,].[B,DE] [=A,,=A,].[A,E] [_A,,_A,].[G,A,C] | %12
 F,,.[A,DF] G,,.[G,A,C] A,,.[A,DF] [=G,,=G,].[B,D_F] | %13
 [G,,G,].[A,CG] [_F,,_F,].[B,D_F] [E,,E,].[A,CG] A,,,.[A,CG] | %14
 [F,,F,].[A,DF] [G,,G,].[A,CG] [A,,A,].[A,DF] [=G,,=G,].[B,D_F] | %15
 [G,,G,].[A,CG] [_F,,_F,].[B,D_F] [E,,E,].[A,CG] A,,,.[A,CG] | %16
 F,,.[CEF] C,,.[CEF] [F,,F,].[CEF] [E,,E,].[CEF] | %17
 =D,,.[A,=DF] B,,,.[A,DF] [=G,,=G,].[B,,B,][=A,,=A,].[_A,,_A,] | %18
 [=G,,=G,].[B,DE] [B,,,B,,].[B,DE] [G,,G,].[E,G,D] [B,,,B,,].[E,G,D] | %19
 [E,,G,].[A,CG] A,,,.[G,A,C] [A,,F,] [A,,,A,,]3 || %20
 D,,.[A,DF] A,,,.[A,DF] D,,.[A,DF] [B,,B,].[B,DF] | %21
 =A,,.=A, [_A,,_A,].[A,DF] [E,,=G,].[G,D] B,,,.[B,DE=G] | %22
 [E,,G,].[A,CG] A,,,.[A,CG] [A,,A,].[A,CG] [G,,G,].[A,CG] | %23
 F,,.[A,CG] [G,,G,].[A,CG] [A,,A,].[A,DF] A,,,.[F,A,D] | %24
 D,,.[A,DF] A,,,.[A,DF] D,,.[A,DF] [B,,B,].[B,DF] | %25
 =A,,.=A, [_A,,_A,].[A,DF] [E,,=G,].[G,D] B,,,.[B,DE=G] | %26
 E,,.E, D,,.D, [C,,C,].[E,=G,D] [B,,,B,,].[E,G,D] | %27
 [A,,A,].[A,CG] [G,,G,].[A,CG] [F,,F,].[A,CG] [E,,E,].[G,A,C] | %28
 D,,.[A,DF] A,,,.[A,DF] D,,.[A,DF] [B,,B,].[B,DF] | %29
 =A,,.=A, [_A,,_A,].[A,DF] [E,,=G,].[G,D] B,,,.[B,DE=G] | %30
 [E,,G,].[A,CG] A,,,.[A,CG] [A,,A,].[A,CG] [G,,G,].[A,CG] | %31
 F,,.[A,CG] [G,,G,].[A,CG] [A,,A,].[A,DF] A,,,.[F,A,D] | %32
 [A,,_C].[A,CF] D,,.[A,CF] [A,,C].[A,CF] D,,.[A,CF] | %33
 [B,,D].[B,DF] B,,,.[B,DF] [E,,G,].[G,B,E] A,,,.[E,G,A,] | %34
 [A,,F,].[A,DF] D,,.[A,DF] [D,,D,].[A,DF] [B,,,B,,].[A,D] | %35
 [E,,E,].[B,DE] A,,,.[G,A,C] [A,,F,] [A,,,A,,]3 || F,,.[A,DF] G,,.[A,CG] A,,.[A,DF] =G,,.[B,D_F] | %37
 G,,.[A,CG] _F,,.[B,D_F] E,,.[A,CG] A,,,.[A,CG] | F,,.[F,A,D] G,,.[G,A,C] A,,.[A,DF] =G,,.[B,D_F] | %39
 G,,.[A,CG] _F,,.[B,D_F] E,,.[A,CG] A,,,.[A,CG] | F,,.[CEF] C,,.[CEF] [F,,F,].[CF] [E,,E,].[CF] | %41
 =D,,.[A,=DF] B,,,.[A,DF] [B,,,B,,].[B,,B,][=A,,=A,].[_A,,_A,] | %42
 =G,,.[B,DE] B,,,.[B,DE] G,,.[B,DE] B,,,.[=G,B,E] | %43
 =G,,.[B,DE] [B,,,B,,].[B,DE] [=A,,,=A,,].[=A,E] [_A,,,_A,,].[G,_A,C] | %44
 F,,.[A,DF] G,,.[G,A,C] A,,.[A,DF] [=G,,=G,].[B,D_F] | %45
 [G,,G,].[A,CG] [_F,,_F,].[B,D_F] [E,,G,].[A,CG] A,,,.[A,CG] | %46
 [D,,F,].[A,DF] [E,,G,].[A,CG] [F,,A,].[A,DF] [=E,,=G,].[B,D_F] | %47
 [E,,G,].[A,CG] [D,,_F,].[B,D_F] [C,,E,].[A,CG] A,,,.[A,CG] | %48
 F,,.[CEF] C,,.[CEF] [F,,F,].[CEF] [E,,E,].[CEF] | %49
 =D,,.[A,=DF] B,,,.[A,DF] [B,,,B,,].[B,,B,][=A,,=A,].[_A,,_A,] | %50
 [=G,,=G,].[B,DE] [B,,,B,,].[B,DE] [E,,G,].[E,G,D] [B,,,B,,].[E,G,D] | %51
 [E,,G,].[A,CG] A,,,.[G,A,C] [A,,F,] [A,,,A,,]3 || %52
 !>![D,,A,,D,].[A,DF] !>![A,,,E,,A,,].[A,DF] !>![D,,A,,D,].[A,DF] !>![_F,,_F,].[A,D_F] | %53
 !>![E,,E,].[A,CG] !>![D,,D,].[A,CG] !>![C,,C,].[A,CG] !>![A,,,A,,].[A,CG] | %54
 !>![E,,G,].[G,A,C] !>![D,,D,].[A,CF] !>![C,,C,].[A,CG] !>![A,,,A,,].[A,CG] | %55
 !>![D,,D,].[A,DF] !>![F,,A,].[_F,,__A,] !>![E,,G,].[_A,CG] A,,,.[G,A,C] | %56
 !>![A,,F,].[A,DF] !>![A,,,E,,A,,].[A,DF] !>![D,,A,,F,].[A,DF] !>!D,,.[A,DF] | %57
 [A,,A,].[E,A,C] E,,.[A,C] [A,,A,]/=G,,/-[G,,=G,]/A,,/- [A,,A,]/=A,,/-[A,,=A,]/B,,/- | %58
 [B,,B,].[E,=G,D] [B,,,B,,].[E,G,B,D] [E,,E,][D,,D,][C,,C,][B,,,B,,] | %59
 [A,,,A,,]2 [G,,,G,,]2 [F,,,F,,]2 [E,,,E,,]2 | %60
 !>![D,,A,,D,].[A,DF] !>![A,,,E,,A,,].[A,DF] !>![D,,A,,D,].[A,DF] !>![_F,,_F,].[A,D_F] | %61
 !>![E,,E,].[A,CG] !>![D,,D,].[A,CG] !>![C,,C,].[A,CG] !>![A,,,A,,].[A,CG] | %62
 !>![E,,G,].[A,CG] !>![D,,D,].[A,CG] !>![C,,C,].[A,CG] !>![A,,,A,,].[A,CG] | %63
 !>![D,,A,,D,].[A,DF] !>![F,,A,].[_F,,__A,] !>![E,,G,].[_A,CG] A,,,.[G,A,C] | %64
 [A,,_C].[CDF] D,,.[A,DF] [A,,C].[CDF] [D,,D,][_C,,_C,] | %65
 [G,,B,].[B,DG] D,,.[B,DG] [G,,__B,].[B,DG] D,,.[B,DG] | %66
 [D,,F,].[A,DF] [F,,F,][G,,G,] [F,,F,].[A,DF] [E,,E,][F,,F,] | %67
 [G,,G,][=G,,=G,][A,,A,][_G,,_G,] [F,,F,][A,,,A,,] [D,,D,]2 |[K:treble] z2 [DA]4 [D=A]2 | %69
 z[I:staff -1] (A =AB [df]c [_cf]2) || %70
[K:Gb][I:staff +1][K:bass] [G,,B,].[B,DG] [D,,D,].[B,DG] [G,,G,].[B,DG] A,,.[DF] | %71
 B,,.[B,DG] __B,,.[__B,DG] A,,.[A,CF] D,,.[A,CF] | [A,,C].[A,CF] D,,.[A,CF] A,,.[A,CF] D,,.[A,CF] | %73
 A,,.[A,CF] F,,.[F,A,=D] G,,.[B,_DG] D,,.[B,DG] | [G,,B,].[B,DG] D,,.[B,DG] G,,.[B,DG] D,,.[B,DG] | %75
 [F,,=A,].[A,E] F,,.[A,E] [B,,B,].[=A,,A,][B,,B,].[_A,,_A,] | %76
 [=G,,=G,].[E,G,D] B,,,.[E,G,D] [A,,A,].[_G,,_G,][F,,F,][E,,E,] | %77
 [D,,D,].[D,F,A,] [A,,E,].[A,,=E,] [A,,F,].[D,,D,][E,,_E,].[F,,F,] | %78
 [G,,B,].[B,DG] D,,.[B,DG] G,,.[B,DG] A,,.[DF] | B,,.[B,DG] __B,,.[__B,DG] A,,.[A,CF] D,,.[A,CF] | %80
 [A,,C].[A,CF] D,,.[A,CF] A,,.[A,CF] D,,.[A,CF] | A,,.[A,CF] F,,.[F,A,=D] G,,.[B,_DG] D,,.[B,DG] | %82
 [G,,G,].[G,B,D] [G,,G,][__G,,__G,] [_F,,_F,][F,B,D] [F,B,D][F,,F,] | %83
 [E,,E,][G,CE] [G,CE][D,,D,] [=C,,=C,] [=A,=CE]2 [A,CE] | %84
 [G,,B,].[B,DG] [D,,D,].[B,DG] [G,,B,].[B,DG] D,,.[B,DG] | %85
 [A,,F,].[A,CF] D,,.[A,DF] [D,B,][D,,D,] [G,,,D,,G,,]2 ||[K:treble] x8 | x8 | x8 | x8 | %90
 z2 [DA]4 [D=A]2- | [DA]6[K:bass] [D,,D,]2 || %92
 [G,,D,G,].[B,DG] [D,,D,].[B,DG] [G,,G,].[B,DG] [A,,A,].[=A,,=A,] | %93
 [B,,B,].[B,DG] [C,C].[CEG] [A,,A,].[A,CF] [D,,D,].[A,CF] | %94
 [A,,A,].[A,CF] [=A,,=A,].[B,,B,] [C,C].[_A,CF] [D,,D,].[A,DF] | %95
 [A,,A,].[A,CF] [D,,D,].[F,A,C] [G,,G,].[B,DG] D,,.[B,DG] | %96
 [G,,G,].[B,DG] D,,.[B,DG] [D,,B,,].[B,DG] D,,.[B,DG] | %97
 [F,,F,].[=A,E] F,,.[A,E] [B,,_A,].[A,B,=D] B,,,.[A,B,D] | %98
 [B,,=G,].[E,G,D] B,,,.[E,G,D] [A,,A,].[_G,A,=C] E,,.[G,A,C] | %99
 [F,,F,].[D,,D,][E,,E,].[_F,,_F,] [=F,,=F,].[D,,D,][E,,E,].[F,,F,] | %100
 [G,,B,].[B,DG] D,,.[B,DG] [G,,G,].[B,DG] [A,,A,].[=A,,=A,] | %101
 [B,,B,].[B,DG] [__B,,__B,].[=B,EG] [A,,A,].[A,CF] [D,,D,].[A,CF] | %102
 [A,,A,].[A,CF] [=A,,=A,].[B,,B,] [C,C].[_A,CF] D,,.[A,DF] | %103
 [A,,A,].[A,CF] [D,,D,][F,,F,]/D,/ [G,,G,].[B,DG] D,,.[B,DG] | %104
 [G,,G,][G,B,D_F] [G,B,DF][__G,,__G,] [_F,,_F,][B,DF] [B,DF][F,,F,] | %105
 [E,,E,][G,CE] [G,CE][D,,D,] [=C,,=C,] [G,=CE]2 [G,CE] | %106
 [D,B,].[B,DG] D,,.[B,DG] [D,B,].[B,DG] !>![D,,D,].[B,DG] | %107
 !>![D,,F,].[A,CF] !>![A,,A,][C,C] !>![B,,B,]2[I:staff -1] !>![GBd]2 | %108
[I:staff +1] z2 !fermata!G,,,6 |] %109
V:3
 x8 | x8 | x8 | x4 x[K:bass] [A,,,E,,A,,]3 || x8 | x8 | x8 | x8 | x8 | x8 | x8 | x8 | x8 | x8 | %14
 x8 | x8 | x8 | x8 | x8 | x4 z2 [G,A,CE]2 || x8 | x8 | x8 | x8 | x8 | x8 | x8 | x8 | x8 | x8 | x8 | %31
 x8 | x8 | x8 | x8 | x4 z2 [G,A,CE]2 || x8 | x8 | x8 | x8 | x8 | x8 | x8 | x8 | x8 | x8 | x8 | x8 | %48
 x8 | x8 | x8 | x4 z2 [G,A,CE]2 || x8 | x8 | x8 | x8 | x8 | x8 | x8 | %59
 z/ C/B,/=A,/ B,/B,/_A,/=G,/ A,/A,/_G,/F,/ G,/=G,/A,/C/ | x8 | x8 | x8 | x8 | x8 | x8 | x8 | x8 | %68
[K:treble] x8 | x8 ||[K:Gb][K:bass] x8 | x8 | x8 | x8 | x8 | x8 | x8 | x8 | x8 | x8 | x8 | x8 | %82
 x8 | x8 | x8 | x8 ||[K:treble] x8 | x8 | x8 | x8 | x8 | x6[K:bass] x2 || x8 | x8 | x8 | x8 | x8 | %97
 x8 | x8 | x8 | x8 | x8 | x8 | x8 | x8 | x8 | x8 | x8 | x8 |] %109
V:4
!8va(! x8 | x7!8va)! x | x8 | x8 || x8 | x8 | x8 | x8 | x8 | x8 | x8 | x8 | x8 | x8 | x8 | x8 | %16
 x8 | x8 | x8 | x8 || x8 | x8 | x8 | x8 | x8 | x8 | x8 | x8 | x8 | x8 | x8 | x8 | x8 | x8 | x8 | %35
 x8 ||!8va(! x8 | x8 | x8 | x7!8va)! x | x8 | x8 | x8 | x8 | x8 | x8 | x8 | x8 | x8 | x8 | x8 | %51
 x8 || x8 | x8 | x8 | x8 | x8 | x8 | x8 | x8 | x8 | x8 | x8 | x8 | x8 | x8 | x8 | x8 | %68
 z/ d3/2 x2 z/ d3/2 x2 | x8 ||[K:Gb] x8 | x8 | x8 | x8 | x8 | x4 z [_ab]/[ab]/- [ab]<[fb] | %76
 z/ [=gb]3/2- [gb]<[gb] z/ [_ga][ga]/- [ga]<[ga] | z/ a3/2- a<a x4 | x8 | x8 | x8 | x8 | x8 | x8 | %84
 x8 | x8 || G2 F2 E2 =D2 | =C2 =D2 EF G2 | F2 E2 D2 =C2 | B,2 =C2 DE F2 | z/ d3/2 x2 z/ d3/2 x2 | %91
 z (f g=g b/d'/__b/d'/ a) x || x8 | x8 | x8 | x8 | x8 | [ga][=g=a] f/e z/ x4 | x8 | %99
 x15/2!8va(! x/ | x8 | x8 | x8 | x15/2!8va)! x/ | %104
 g'>[bd'f']- [bd'f']>[bd'g']- [bd'g']>[d'a']- [d'a']>[c'e'g']- | [c'e'g']>[c'e'f']- [c'e'f']2 x4 | %106
 x8 | x5!8va(! x3!8va)! | x8 |] %109
V:5
!8va(! x8 | x7!8va)! x | x8 | x8 || x8 | x8 | x8 | x8 | x8 | x8 | x8 | x8 | x8 | x8 | x8 | x8 | %16
 x8 | x8 | x8 | x8 || x8 | x8 | x8 | x8 | x8 | x8 | x8 | x8 | x8 | x8 | x8 | x8 | x8 | x8 | x8 | %35
 x8 ||!8va(! x8 | x8 | x8 | x7!8va)! x | x8 | x8 | x8 | x8 | x8 | x8 | x8 | x8 | x8 | x8 | x8 | %51
 x8 || x8 | x8 | x8 | x8 | x8 | x8 | x8 | x8 | x8 | x8 | x8 | x8 | x8 | x8 | x8 | x8 | x8 | x8 || %70
[K:Gb] x8 | x8 | x8 | x8 | x8 | x8 | x8 | x8 | x8 | x8 | x8 | x8 | x8 | x8 | x8 | x8 || x8 | x8 | %88
 x8 | x8 | x8 | x (A =AB d__d c2) || x8 | x8 | x8 | x8 | x8 | x8 | x8 | x15/2!8va(! x/ | x8 | x8 | %102
 x8 | x15/2!8va)! x/ | x8 | x8 | x8 | x5!8va(! x3!8va)! | x8 |] %109

